public/images/cse.svg

<svg width="28" height="28" viewBox="0 0 28 28" fill="none" xmlns="http://www.w3.org/2000/svg">
<path d="M15.1666 9.99832C14.245 9.99832 13.4983 10.745 13.4983 11.6667C13.4983 12.5883 14.245 13.335 15.1666 13.335C16.0883 13.335 16.835 12.5883 16.835 11.6667C16.835 10.745 16.0883 9.99832 15.1666 9.99832Z" fill="#312ED7"/>
<path d="M15.4116 3.49999C10.9316 3.37166 7.24496 6.84833 7.02329 11.2467L4.78329 14.2333C4.49162 14.6183 4.77162 15.1667 5.24996 15.1667H6.99996V18.6667C6.99996 19.95 8.04996 21 9.33329 21H10.5V23.3333C10.5 23.975 11.025 24.5 11.6666 24.5H17.5C18.1416 24.5 18.6666 23.975 18.6666 23.3333V19.04C21.5133 17.6867 23.45 14.7467 23.3333 11.3633C23.17 7.13999 19.6233 3.62833 15.4116 3.49999ZM18.6666 11.6667C18.6666 11.8183 18.655 11.97 18.6433 12.1217L19.6116 12.8917C19.705 12.9617 19.7283 13.0783 19.67 13.1833L18.7366 14.805C18.6783 14.91 18.55 14.945 18.4566 14.91L17.3016 14.4433C17.0566 14.63 16.8 14.7817 16.52 14.8983L16.3333 16.135C16.3216 16.2517 16.2166 16.3333 16.1 16.3333H14.2333C14.1166 16.3333 14.0233 16.2517 14 16.135L13.825 14.8983C13.5333 14.7817 13.2766 14.63 13.0316 14.4433L11.8766 14.91C11.7716 14.945 11.6433 14.91 11.585 14.805L10.6516 13.1833C10.5933 13.09 10.6166 12.9617 10.71 12.8917L11.69 12.1217C11.6783 11.97 11.6666 11.8183 11.6666 11.6667C11.6666 11.515 11.69 11.3517 11.7133 11.2117L10.7216 10.4417C10.6283 10.3717 10.605 10.255 10.6633 10.1383L11.5966 8.52833C11.655 8.42333 11.7716 8.38833 11.8766 8.42333L13.0433 8.88999C13.2766 8.71499 13.545 8.55166 13.825 8.43499L14 7.19833C14.0233 7.08166 14.1166 6.99999 14.2333 6.99999H16.1C16.2166 6.99999 16.31 7.08166 16.3333 7.19833L16.5083 8.43499C16.7883 8.55166 17.045 8.70333 17.29 8.88999L18.4566 8.42333C18.5616 8.38833 18.69 8.42333 18.7366 8.52833L19.67 10.1383C19.7283 10.2433 19.705 10.3717 19.6116 10.4417L18.62 11.2117C18.655 11.3517 18.6666 11.5033 18.6666 11.6667Z" fill="#3F4040"/>
</svg>

<svg width="28" height="28" fill="none" xmlns="http://www.w3.org/2000/svg"><path d="M15.167 9.998a1.668 1.668 0 1 0-.001 3.336 1.668 1.668 0 0 0 0-3.336Z" fill="#312ED7"/><path d="M15.412 3.5a8.158 8.158 0 0 0-8.389 7.747l-2.24 2.986a.583.583 0 0 0 .467.934H7v3.5A2.34 2.34 0 0 0 9.333 21H10.5v2.333a1.17 1.17 0 0 0 1.167 1.167H17.5a1.17 1.17 0 0 0 1.167-1.167V19.04a8.172 8.172 0 0 0 4.666-7.677c-.163-4.223-3.71-7.735-7.921-7.863Zm3.255 8.167c0 .151-.012.303-.024.455l.969.77c.093.07.116.186.058.291l-.933 1.622c-.059.105-.187.14-.28.105l-1.155-.467a3.501 3.501 0 0 1-.782.455l-.187 1.237c-.011.117-.116.198-.233.198h-1.867a.237.237 0 0 1-.233-.198l-.175-1.237a3.333 3.333 0 0 1-.793-.455l-1.155.467c-.105.035-.234 0-.292-.105l-.933-1.622a.221.221 0 0 1 .058-.291l.98-.77c-.012-.152-.023-.304-.023-.455 0-.152.023-.315.046-.455l-.991-.77c-.094-.07-.117-.187-.059-.304l.934-1.61a.23.23 0 0 1 .28-.105l1.166.467c.234-.175.502-.338.782-.455L14 7.198A.237.237 0 0 1 14.233 7H16.1c.117 0 .21.082.233.198l.175 1.237c.28.117.537.268.782.455l1.167-.467c.105-.035.233 0 .28.105l.933 1.61a.234.234 0 0 1-.058.304l-.992.77c.035.14.047.291.047.455Z" fill="#3F4040"/></svg>
